X:1
T:Angelica beltà
T:Francesco Landino c. 1325 - 1397
T:Angelica beltà
T:Wim Looyestijn - 2018. May be freedly copied for non-commercial use.
T:Wim Looyestijn - 2018. May be freedly copied for non-commercial use.
C:Francesco Landino
C:c. 1325 - 1397
Z:Wim Looyestijn - 2018. May be freedly copied for non-commercial use.
%%score 1 { ( 2 3 ) 4 }
L:1/8
Q:1/4=120
M:3/2
K:F
V:1 treble nm="MusicXML Part"
V:2 treble nm="MusicXML Part"
V:3 treble 
V:4 bass nm="MusicXML Part"
V:1
 d12 | d4 d2 c2 d2 B2 | A4 A2 G4 F2 | A8 =B2 ^c2 | d4 e4 d4 | f8- f2 e2 | e2 d2 d2 c2 c2 B2 | %7
w: An-|ge- li- * * *|ca bel- * *|tà ve- *|nu- ta _|in _ _|ter- * * * * *|
 B2 A4 G2 A2 F2 | G12 | G8 z4 | g12 | g2 f2 e2 f2 e2 d2 | ^c8 d4 | f2 e2 e2 d4 ^c2 | d8 e2 f2 | %15
w: * ra, ve- nu- ta in|ter-|ra,|dun-|que _ _ _ cia- *|scun ch'a-|ma _ ve- * *|der, ve- *|
 g8 g4 | (3g2 f2 e2 d4 c4 | e2 d4 c2 d2 B2 | A12 | z12 | B8 c4 | d8 d4 | d2 c4 B4 A2 | G12 | %24
w: der be-|lez- * * * *||za||vir- *|tù at-|ti _ vez- *|zo-|
 d4 e4 f4 | g4 (3g2 f2 e2 f2 d2 | e8 c2 d2 | e4 (3^c2 =B2 A2 B2 c2 | d16 |] %29
w: si e leg-|* gia- * * dri- *|a, e _|leg- gia- * * dri- *|a.|
V:2
 [B,D]12 | [B,D]4 [DB]8 | [FA]4 A4 G4 | F8 G4 | F4 G8 | [CA]12 | G4 A4 D4 | F4 G4 A4 | [B,D]12 | %9
 [B,D]8 z4 | [B,G]12 | G2 F2 G4 A4 | A8 A4 | B4 A4 G4 | F8 E4 | G8 D4 | B4 d4 c4 | B4 d4 B4 | %18
 [FA]12 | z12 | B4 G4 A4 | B8 B4 | A4 G4 A4 | [B,D]12 | [DB]12 | G4 A4 B4 | A4 E4 A4 | G4 A8 | %28
 [FA]16 |] %29
V:3
 x12 | x12 | F4 C8 | D8 =B,2 ^C2 | D4 D8 | x12 | B,4 D4 B,4 | D4 C8 | x12 | x12 | x12 | C4 B,4 D4 | %12
 ^C8 D4 | G4 D6 ^C2 | D8 C4 | B,8 B,4 | D8 G4- | G4 A4 G4 | x12 | x12 | D8 F4 | D8 D4 | F4 C4 C4 | %23
 x12 | x12 | E4 D4 D4 | C4 C4 C4 | C4 ^C4 E4 | x16 |] %29
V:4
 G,12 | G,4 G,8 | D,4 F,4 E,4 | D,8 E,4 | D,4 G,8 | F,12 | G,4 F,4 G,4 | D,4 E,4 F,4 | G,12 | %9
 G,8 z4 | G,12 | A,4 G,4 F,4 | E,8 F,4 | E,4 F,4 E,4 | D,8 A,4 | G,8 G,4 | G,4 F,4 E,4 | %17
 G,4 F,4 G,4 | A,12 | z12 | G,4 B,4 A,4 | G,8 G,4 | D,4 E,4 F,4 | G,12 | G,4 G,8 | G,4 F,4 G,4 | %26
 A,4 G,4 F,4 | E,12 | D,16 |] %29

